;MODEL : COLIBRI_HOMEv3
G21
G90
M82
G28
G92 E0
;Generated with Cura_SteamEngine DEV
; GCode generated by Interlatin ContructorIL   Software  v2.0.0: {day} {date} {time}
G21        ;metric values
G90        ;absolute positioning
;Agregado para gcode Colibri3D
M73 P0
M204 S1000;

;Layer count: 1
;LAYER:0
M127 T0
G1 F3600 E-4.70000
G0 F2400 X-0.003 Y-63.877 Z0.200
;TYPE:WALL-INNER
G1 F3600 E0.00000
G1 F900 X-0.945 Y-64.026 E0.02641
G1 X-1.893 Y-64.176 E0.05298
G1 X-2.745 Y-64.611 E0.07947
G1 X-3.597 Y-65.045 E0.10595
G1 X-4.956 Y-66.404 E0.15916
G1 X-5.389 Y-67.254 E0.18558
G1 X-5.823 Y-68.107 E0.21208
G1 X-6.123 Y-70.000 E0.26515
G1 X-5.823 Y-71.893 E0.31822
G1 X-5.388 Y-72.745 E0.34470
G1 X-4.954 Y-73.597 E0.37118
G1 X-3.595 Y-74.956 E0.42439
G1 X-2.746 Y-75.388 E0.45077
G1 X-1.892 Y-75.823 E0.47731
G1 X0.000 Y-76.123 E0.53035
G1 X1.893 Y-75.823 E0.58342
G1 X2.745 Y-75.388 E0.60991
G1 X3.597 Y-74.954 E0.63638
G1 X4.956 Y-73.595 E0.68960
G1 X5.388 Y-72.746 E0.71598
G1 X5.823 Y-71.892 E0.74251
G1 X6.123 Y-70.000 E0.79556
G1 X5.823 Y-68.106 E0.84865
G1 X5.388 Y-67.254 E0.87514
G1 X4.954 Y-66.402 E0.90162
G1 X3.595 Y-65.043 E0.95483
G1 X2.746 Y-64.611 E0.98121
G1 X1.892 Y-64.176 E1.00775
G1 X0.946 Y-64.027 E1.03426
G1 X-0.003 Y-63.877 E1.06087
G0 F2400 X-0.997 Y-63.697
G1 F900 X-1.995 Y-63.855 E1.08884
G1 X-3.797 Y-64.773 E1.14484
G1 X-5.226 Y-66.202 E1.20080
G1 X-5.685 Y-67.103 E1.22880
G1 X-6.143 Y-68.002 E1.25673
G1 X-6.460 Y-70.000 E1.31275
G1 X-6.144 Y-71.995 E1.36868
G1 X-5.226 Y-73.797 E1.42467
G1 X-3.797 Y-75.226 E1.48063
G1 X-2.896 Y-75.685 E1.50863
G1 X-1.997 Y-76.143 E1.53657
G1 X0.000 Y-76.460 E1.59255
G1 X1.995 Y-76.144 E1.64848
G1 X3.797 Y-75.226 E1.70448
G1 X5.226 Y-73.797 E1.76044
G1 X5.685 Y-72.896 E1.78843
G1 X6.143 Y-71.997 E1.81637
G1 X6.460 Y-70.000 E1.87236
G1 X6.144 Y-68.003 E1.92834
G1 X5.226 Y-66.202 E1.98431
G1 X3.797 Y-64.773 E2.04027
G1 X2.896 Y-64.314 E2.06827
G1 X1.997 Y-63.855 E2.09622
G1 X0.999 Y-63.698 E2.12419
G1 X-0.002 Y-63.539 E2.15226
G1 X-0.997 Y-63.697 E2.18015
G0 F2400 X-1.050 Y-63.368
G1 F900 X-2.101 Y-63.535 E2.20962
G1 X-3.992 Y-64.498 E2.26838
G1 X-5.501 Y-66.007 E2.32747
G1 X-6.464 Y-67.898 E2.38623
G1 X-6.798 Y-70.000 E2.44516
G1 X-6.464 Y-72.101 E2.50406
G1 X-5.501 Y-73.992 E2.56282
G1 X-3.992 Y-75.501 E2.62191
G1 X-2.101 Y-76.464 E2.68067
G1 X0.000 Y-76.798 E2.73958
G1 X2.101 Y-76.464 E2.79848
G1 X3.992 Y-75.501 E2.85724
G1 X5.501 Y-73.992 E2.91633
G1 X6.464 Y-72.101 E2.97509
G1 X6.798 Y-70.000 E3.03399
G1 X6.464 Y-67.898 E3.09293
G1 X5.501 Y-66.007 E3.15168
G1 X3.992 Y-64.498 E3.21077
G1 X2.101 Y-63.535 E3.26953
G1 X1.051 Y-63.369 E3.29897
G1 X-0.002 Y-63.202 E3.32849
G1 X-1.050 Y-63.368 E3.35787
G0 F2400 X-1.102 Y-63.039
G1 F900 X-2.205 Y-63.214 E3.38879
G1 X-4.192 Y-64.226 E3.45053
G1 X-5.773 Y-65.807 E3.51244
G1 X-6.785 Y-67.794 E3.57419
G1 X-7.135 Y-70.000 E3.63603
G1 X-6.785 Y-72.205 E3.69785
G1 X-5.773 Y-74.192 E3.75959
G1 X-4.192 Y-75.773 E3.82150
G1 X-2.205 Y-76.785 E3.88325
G1 X0.000 Y-77.135 E3.94506
G1 X2.205 Y-76.785 E4.00688
G1 X4.192 Y-75.773 E4.06863
G1 X5.773 Y-74.192 E4.13054
G1 X6.785 Y-72.205 E4.19228
G1 X7.135 Y-70.000 E4.25410
G1 X6.785 Y-67.794 E4.31594
G1 X5.773 Y-65.807 E4.37769
G1 X4.192 Y-64.226 E4.43960
G1 X2.205 Y-63.214 E4.50134
G1 X1.103 Y-63.040 E4.53223
G1 X-0.002 Y-62.865 E4.56321
G1 X-1.102 Y-63.039 E4.59404
G0 F2400 X-1.154 Y-62.710
G1 F900 X-2.307 Y-62.893 E4.62637
G1 X-4.390 Y-63.954 E4.69110
G1 X-6.045 Y-65.609 E4.75590
G1 X-7.106 Y-67.692 E4.82063
G1 X-7.472 Y-70.000 E4.88534
G1 X-7.106 Y-72.307 E4.95001
G1 X-6.045 Y-74.390 E5.01474
G1 X-4.390 Y-76.045 E5.07955
G1 X-2.307 Y-77.106 E5.14428
G1 X0.000 Y-77.472 E5.20895
G1 X2.307 Y-77.106 E5.27363
G1 X4.390 Y-76.045 E5.33836
G1 X6.045 Y-74.390 E5.40316
G1 X7.106 Y-72.307 E5.46789
G1 X7.472 Y-70.000 E5.53257
G1 X7.106 Y-67.692 E5.59727
G1 X6.045 Y-65.609 E5.66200
G1 X4.390 Y-63.954 E5.72681
G1 X2.307 Y-62.893 E5.79154
G1 X1.155 Y-62.711 E5.82383
G1 X-0.001 Y-62.528 E5.85624
G1 X-1.154 Y-62.710 E5.88856
G0 F2400 X-1.207 Y-62.382
G1 F900 X-2.412 Y-62.572 E5.92233
G1 X-4.590 Y-63.682 E5.99002
G1 X-6.317 Y-65.409 E6.05765
G1 X-7.427 Y-67.587 E6.12534
G1 X-7.809 Y-70.000 E6.19298
G1 X-7.427 Y-72.412 E6.26060
G1 X-6.317 Y-74.590 E6.32829
G1 X-4.590 Y-76.317 E6.39591
G1 X-2.412 Y-77.427 E6.46360
G1 X0.000 Y-77.809 E6.53122
G1 X2.412 Y-77.427 E6.59884
G1 X4.590 Y-76.317 E6.66652
G1 X6.317 Y-74.590 E6.73415
G1 X7.427 Y-72.412 E6.80184
G1 X7.809 Y-70.000 E6.86946
G1 X7.427 Y-67.587 E6.93710
G1 X6.317 Y-65.409 E7.00479
G1 X4.590 Y-63.682 E7.07241
G1 X2.414 Y-62.573 E7.14004
G1 X1.207 Y-62.382 E7.17388
G1 X0.002 Y-62.191 E7.20766
G1 X-1.207 Y-62.382 E7.24155
G0 F2400 X-1.259 Y-62.053
G1 F900 X-2.518 Y-62.252 E7.27684
G1 X-4.785 Y-63.407 E7.34729
G1 X-6.592 Y-65.214 E7.41805
G1 X-7.747 Y-67.481 E7.48850
G1 X-8.146 Y-70.000 E7.55912
G1 X-7.747 Y-72.518 E7.62971
G1 X-6.592 Y-74.785 E7.70016
G1 X-4.785 Y-76.592 E7.77092
G1 X-2.518 Y-77.747 E7.84136
G1 X0.000 Y-78.146 E7.91195
G1 X2.518 Y-77.747 E7.98255
G1 X4.785 Y-76.592 E8.05299
G1 X6.592 Y-74.785 E8.12375
G1 X7.747 Y-72.518 E8.19420
G1 X8.146 Y-70.000 E8.26479
G1 X7.747 Y-67.481 E8.33541
G1 X6.592 Y-65.214 E8.40586
G1 X4.785 Y-63.407 E8.47662
G1 X2.520 Y-62.253 E8.54700
G1 X1.259 Y-62.053 E8.58236
G1 X0.002 Y-61.854 E8.61760
G1 X-1.259 Y-62.053 E8.65294
G0 F2400 X0.000 Y-61.517
G1 F900 X-2.622 Y-61.932 E8.72645
G1 X-4.987 Y-63.137 E8.79994
G1 X-6.862 Y-65.012 E8.87336
G1 X-8.067 Y-67.377 E8.94686
G1 X-8.483 Y-70.000 E9.02040
G1 X-8.067 Y-72.622 E9.09390
G1 X-6.862 Y-74.987 E9.16740
G1 X-4.987 Y-76.862 E9.24082
G1 X-2.622 Y-78.067 E9.31432
G1 X0.000 Y-78.483 E9.38782
G1 X2.622 Y-78.067 E9.46133
G1 X4.987 Y-76.862 E9.53483
G1 X6.862 Y-74.987 E9.60825
G1 X8.067 Y-72.622 E9.68174
G1 X8.483 Y-70.000 E9.75525
G1 X8.067 Y-67.377 E9.82879
G1 X6.862 Y-65.012 E9.90228
G1 X4.987 Y-63.137 E9.97571
G1 X2.622 Y-61.932 E10.04920
G1 X0.000 Y-61.517 E10.12271
G0 F2400 X0.000 Y-61.180
G1 F900 X-2.726 Y-61.611 E10.19912
G1 X-5.183 Y-62.863 E10.27548
G1 X-7.136 Y-64.816 E10.35195
G1 X-8.388 Y-67.273 E10.42831
G1 X-8.820 Y-70.000 E10.50476
G1 X-8.388 Y-72.726 E10.58118
G1 X-7.136 Y-75.183 E10.65754
G1 X-5.183 Y-77.136 E10.73401
G1 X-2.726 Y-78.388 E10.81037
G1 X0.000 Y-78.820 E10.88679
G1 X2.726 Y-78.388 E10.96321
G1 X5.183 Y-77.136 E11.03957
G1 X7.136 Y-75.183 E11.11604
G1 X8.388 Y-72.726 E11.19240
G1 X8.820 Y-70.000 E11.26882
G1 X8.388 Y-67.273 E11.34527
G1 X7.136 Y-64.816 E11.42163
G1 X5.183 Y-62.863 E11.49810
G1 X2.726 Y-61.611 E11.57446
G1 X0.000 Y-61.180 E11.65088
G0 F2400 X0.000 Y-60.843
G1 F900 X-2.831 Y-61.291 E11.73024
G1 X-5.383 Y-62.591 E11.80954
G1 X-7.408 Y-64.616 E11.88884
G1 X-8.708 Y-67.168 E11.96814
G1 X-9.157 Y-70.000 E12.04754
G1 X-8.708 Y-72.831 E12.12690
G1 X-7.408 Y-75.383 E12.20621
G1 X-5.383 Y-77.408 E12.28550
G1 X-2.831 Y-78.708 E12.36480
G1 X0.000 Y-79.157 E12.44417
G1 X2.831 Y-78.708 E12.52354
G1 X5.383 Y-77.408 E12.60284
G1 X7.408 Y-75.383 E12.68214
G1 X8.708 Y-72.831 E12.76144
G1 X9.157 Y-70.000 E12.84081
G1 X8.708 Y-67.168 E12.92020
G1 X7.408 Y-64.616 E12.99950
G1 X5.383 Y-62.591 E13.07880
G1 X2.831 Y-61.291 E13.15810
G1 X0.000 Y-60.843 E13.23746
G0 F2400 X0.000 Y-60.505
G1 F900 X-2.933 Y-60.969 E13.31969
G1 X-5.581 Y-62.319 E13.40199
G1 X-7.680 Y-64.418 E13.48418
G1 X-9.030 Y-67.067 E13.56650
G1 X-9.495 Y-70.000 E13.64873
G1 X-9.030 Y-72.932 E13.73093
G1 X-7.680 Y-75.581 E13.81325
G1 X-5.581 Y-77.680 E13.89545
G1 X-2.932 Y-79.030 E13.97777
G1 X0.000 Y-79.495 E14.05997
G1 X2.932 Y-79.030 E14.14217
G1 X5.581 Y-77.680 E14.22449
G1 X7.680 Y-75.581 E14.30669
G1 X9.030 Y-72.932 E14.38901
G1 X9.495 Y-70.000 E14.47121
G1 X9.030 Y-67.067 E14.55343
G1 X7.680 Y-64.418 E14.63576
G1 X5.581 Y-62.319 E14.71795
G1 X2.933 Y-60.969 E14.80025
G1 X0.000 Y-60.505 E14.88247
G0 F2400 X0.000 Y-60.168
;TYPE:WALL-OUTER
G1 F900 X-3.038 Y-60.649 E14.96764
G1 X-5.780 Y-62.046 E15.05285
G1 X-7.953 Y-64.219 E15.13794
G1 X-9.350 Y-66.961 E15.22315
G1 X-9.832 Y-70.000 E15.30835
G1 X-9.350 Y-73.038 E15.39352
G1 X-7.953 Y-75.780 E15.47873
G1 X-5.780 Y-77.953 E15.56382
G1 X-3.038 Y-79.350 E15.64903
G1 X0.000 Y-79.832 E15.73420
G1 X3.038 Y-79.350 E15.81937
G1 X5.780 Y-77.953 E15.90458
G1 X7.953 Y-75.780 E15.98967
G1 X9.350 Y-73.038 E16.07488
G1 X9.832 Y-70.000 E16.16005
G1 X9.350 Y-66.961 E16.24525
G1 X7.953 Y-64.219 E16.33046
G1 X5.780 Y-62.046 E16.41555
G1 X3.038 Y-60.649 E16.50076
G1 X0.000 Y-60.168 E16.58593
G1 F3600 E11.88593
G0 F2400 X116.404 Y65.043
;TYPE:WALL-INNER
G1 F3600 E16.58593
G1 F900 X117.253 Y64.611 E16.61231
G1 X118.107 Y64.176 E16.63884
G1 X119.052 Y64.027 E16.66533
G1 X120.002 Y63.877 E16.69196
G1 X120.945 Y64.026 E16.71840
G1 X121.893 Y64.176 E16.74497
G1 X122.745 Y64.611 E16.77146
G1 X123.597 Y65.045 E16.79794
G1 X124.956 Y66.404 E16.85115
G1 X125.388 Y67.253 E16.87753
G1 X125.823 Y68.107 E16.90407
G1 X126.123 Y70.000 E16.95714
G1 X125.823 Y71.893 E17.01021
G1 X125.388 Y72.745 E17.03669
G1 X124.954 Y73.597 E17.06317
G1 X123.595 Y74.956 E17.11639
G1 X122.746 Y75.388 E17.14276
G1 X121.892 Y75.823 E17.16930
G1 X120.000 Y76.123 E17.22234
G1 X118.106 Y75.823 E17.27544
G1 X117.254 Y75.388 E17.30193
G1 X116.402 Y74.954 E17.32840
G1 X115.043 Y73.595 E17.38162
G1 X114.610 Y72.745 E17.40803
G1 X114.176 Y71.892 E17.43453
G1 X114.027 Y70.946 E17.46105
G1 X113.877 Y69.997 E17.48765
G1 X114.026 Y69.054 E17.51409
G1 X114.176 Y68.107 E17.54063
G1 X114.611 Y67.254 E17.56715
G1 X115.045 Y66.402 E17.59362
G1 X116.404 Y65.043 E17.64684
G0 F2400 X117.103 Y64.314
G1 F900 X118.002 Y63.855 E17.67479
G1 X119.000 Y63.698 E17.70276
G1 X120.002 Y63.539 E17.73085
G1 X120.997 Y63.697 E17.75875
G1 X121.995 Y63.855 E17.78673
G1 X123.797 Y64.773 E17.84272
G1 X125.226 Y66.202 E17.89868
G1 X125.685 Y67.103 E17.92668
G1 X126.143 Y68.002 E17.95462
G1 X126.460 Y70.000 E18.01063
G1 X126.144 Y71.995 E18.06656
G1 X125.226 Y73.797 E18.12256
G1 X123.797 Y75.226 E18.17851
G1 X122.896 Y75.685 E18.20651
G1 X121.997 Y76.143 E18.23445
G1 X120.000 Y76.460 E18.29044
G1 X118.003 Y76.144 E18.34642
G1 X116.202 Y75.226 E18.40239
G1 X114.773 Y73.797 E18.45835
G1 X114.314 Y72.896 E18.48635
G1 X113.855 Y71.997 E18.51430
G1 X113.698 Y70.999 E18.54227
G1 X113.539 Y69.998 E18.57033
G1 X113.697 Y69.002 E18.59826
G1 X113.855 Y68.004 E18.62624
G1 X114.773 Y66.202 E18.68223
G1 X116.202 Y64.773 E18.73819
G1 X117.103 Y64.314 E18.76619
G0 F2400 X116.007 Y64.498
G1 F900 X117.898 Y63.535 E18.82495
G1 X118.948 Y63.369 E18.85438
G1 X120.002 Y63.202 E18.88393
G1 X121.050 Y63.368 E18.91331
G1 X122.101 Y63.535 E18.94278
G1 X123.992 Y64.498 E19.00153
G1 X125.501 Y66.007 E19.06062
G1 X126.464 Y67.898 E19.11938
G1 X126.798 Y70.000 E19.17832
G1 X126.464 Y72.101 E19.23722
G1 X125.501 Y73.992 E19.29598
G1 X123.992 Y75.501 E19.35507
G1 X122.101 Y76.464 E19.41383
G1 X120.000 Y76.798 E19.47273
G1 X117.898 Y76.464 E19.53167
G1 X116.007 Y75.501 E19.59042
G1 X114.498 Y73.992 E19.64951
G1 X113.535 Y72.101 E19.70827
G1 X113.369 Y71.051 E19.73771
G1 X113.202 Y69.998 E19.76723
G1 X113.368 Y68.950 E19.79661
G1 X113.535 Y67.898 E19.82610
G1 X114.498 Y66.007 E19.88486
G1 X116.007 Y64.498 E19.94395
G0 F2400 X115.807 Y64.226
G1 F900 X117.794 Y63.214 E20.00569
G1 X118.896 Y63.040 E20.03658
G1 X120.002 Y62.865 E20.06759
G1 X121.102 Y63.039 E20.09843
G1 X122.205 Y63.214 E20.12935
G1 X124.192 Y64.226 E20.19109
G1 X125.773 Y65.807 E20.25300
G1 X126.785 Y67.794 E20.31474
G1 X127.135 Y70.000 E20.37659
G1 X126.785 Y72.205 E20.43841
G1 X125.773 Y74.192 E20.50015
G1 X124.192 Y75.773 E20.56206
G1 X122.205 Y76.785 E20.62380
G1 X120.000 Y77.135 E20.68562
G1 X117.794 Y76.785 E20.74747
G1 X115.807 Y75.773 E20.80921
G1 X114.226 Y74.192 E20.87112
G1 X113.214 Y72.205 E20.93286
G1 X113.040 Y71.103 E20.96376
G1 X112.865 Y69.998 E20.99473
G1 X113.039 Y68.898 E21.02557
G1 X113.214 Y67.794 E21.05652
G1 X114.226 Y65.807 E21.11826
G1 X115.807 Y64.226 E21.18017
G0 F2400 X115.609 Y63.954
G1 F900 X117.692 Y62.893 E21.24490
G1 X118.844 Y62.711 E21.27719
G1 X120.001 Y62.528 E21.30963
G1 X121.154 Y62.710 E21.34195
G1 X122.307 Y62.893 E21.37427
G1 X124.390 Y63.954 E21.43900
G1 X126.045 Y65.609 E21.50381
G1 X127.106 Y67.692 E21.56854
G1 X127.472 Y70.000 E21.63324
G1 X127.106 Y72.307 E21.69792
G1 X126.045 Y74.390 E21.76264
G1 X124.390 Y76.045 E21.82745
G1 X122.307 Y77.106 E21.89218
G1 X120.000 Y77.472 E21.95686
G1 X117.692 Y77.106 E22.02156
G1 X115.609 Y76.045 E22.08629
G1 X113.954 Y74.390 E22.15110
G1 X112.893 Y72.307 E22.21582
G1 X112.711 Y71.155 E22.24812
G1 X112.528 Y69.999 E22.28052
G1 X112.710 Y68.846 E22.31284
G1 X112.893 Y67.692 E22.34520
G1 X113.954 Y65.609 E22.40992
G1 X115.609 Y63.954 E22.47473
G0 F2400 X115.409 Y63.682
G1 F900 X117.585 Y62.573 E22.54236
G1 X118.792 Y62.382 E22.57619
G1 X119.998 Y62.191 E22.61000
G1 X121.207 Y62.382 E22.64389
G1 X122.412 Y62.572 E22.67767
G1 X124.590 Y63.682 E22.74536
G1 X126.317 Y65.409 E22.81298
G1 X127.427 Y67.587 E22.88067
G1 X127.809 Y70.000 E22.94832
G1 X127.427 Y72.412 E23.01594
G1 X126.317 Y74.590 E23.08362
G1 X124.590 Y76.317 E23.15125
G1 X122.412 Y77.427 E23.21894
G1 X120.000 Y77.809 E23.28655
G1 X117.587 Y77.427 E23.35420
G1 X115.409 Y76.317 E23.42189
G1 X113.682 Y74.590 E23.48951
G1 X112.573 Y72.414 E23.55714
G1 X112.191 Y70.000 E23.62481
G1 X112.382 Y68.793 E23.65865
G1 X112.572 Y67.587 E23.69245
G1 X113.682 Y65.409 E23.76014
G1 X115.409 Y63.682 E23.82777
G0 F2400 X115.214 Y63.407
G1 F900 X117.479 Y62.253 E23.89815
G1 X120.000 Y61.854 E23.96883
G1 X121.259 Y62.053 E24.00412
G1 X122.518 Y62.252 E24.03941
G1 X124.785 Y63.407 E24.10986
G1 X126.592 Y65.214 E24.18062
G1 X127.747 Y67.481 E24.25107
G1 X128.146 Y70.000 E24.32169
G1 X127.747 Y72.518 E24.39228
G1 X126.592 Y74.785 E24.46273
G1 X124.785 Y76.592 E24.53349
G1 X122.518 Y77.747 E24.60393
G1 X120.000 Y78.146 E24.67452
G1 X117.481 Y77.747 E24.74514
G1 X115.214 Y76.592 E24.81559
G1 X113.407 Y74.785 E24.88635
G1 X112.253 Y72.520 E24.95674
G1 X112.053 Y71.259 E24.99209
G1 X111.854 Y70.002 E25.02733
G1 X112.253 Y67.479 E25.09806
G1 X113.407 Y65.214 E25.16844
G1 X115.214 Y63.407 E25.23920
G0 F2400 X115.012 Y63.137
G1 F900 X117.377 Y61.932 E25.31270
G1 X120.000 Y61.517 E25.38623
G1 X122.622 Y61.932 E25.45973
G1 X124.987 Y63.137 E25.53323
G1 X126.862 Y65.012 E25.60665
G1 X128.067 Y67.377 E25.68014
G1 X128.483 Y70.000 E25.75368
G1 X128.067 Y72.622 E25.82719
G1 X126.862 Y74.987 E25.90068
G1 X124.987 Y76.862 E25.97411
G1 X122.622 Y78.067 E26.04760
G1 X120.000 Y78.483 E26.12111
G1 X117.377 Y78.067 E26.19464
G1 X115.012 Y76.862 E26.26814
G1 X113.137 Y74.987 E26.34156
G1 X111.932 Y72.622 E26.41506
G1 X111.517 Y70.000 E26.48856
G1 X111.932 Y67.377 E26.56209
G1 X113.137 Y65.012 E26.63559
G1 X115.012 Y63.137 E26.70901
G0 F2400 X114.816 Y62.863
G1 F900 X117.273 Y61.611 E26.78536
G1 X120.000 Y61.180 E26.86181
G1 X122.726 Y61.611 E26.93823
G1 X125.183 Y62.863 E27.01458
G1 X127.136 Y64.816 E27.09106
G1 X128.388 Y67.273 E27.16741
G1 X128.820 Y70.000 E27.24386
G1 X128.388 Y72.726 E27.32029
G1 X127.136 Y75.183 E27.39664
G1 X125.183 Y77.136 E27.47312
G1 X122.726 Y78.388 E27.54947
G1 X120.000 Y78.820 E27.62590
G1 X117.273 Y78.388 E27.70234
G1 X114.816 Y77.136 E27.77870
G1 X112.863 Y75.183 E27.85518
G1 X111.611 Y72.726 E27.93153
G1 X111.180 Y70.000 E28.00795
G1 X111.611 Y67.273 E28.08439
G1 X112.863 Y64.816 E28.16075
G1 X114.816 Y62.863 E28.23723
G0 F2400 X114.616 Y62.591
G1 F900 X117.168 Y61.291 E28.31653
G1 X120.000 Y60.843 E28.39592
G1 X122.831 Y61.291 E28.47528
G1 X125.383 Y62.591 E28.55459
G1 X127.408 Y64.616 E28.63388
G1 X128.708 Y67.168 E28.71318
G1 X129.157 Y70.000 E28.79258
G1 X128.708 Y72.831 E28.87195
G1 X127.408 Y75.383 E28.95125
G1 X125.383 Y77.408 E29.03054
G1 X122.831 Y78.708 E29.10985
G1 X120.000 Y79.157 E29.18921
G1 X117.168 Y78.708 E29.26861
G1 X114.616 Y77.408 E29.34791
G1 X112.591 Y75.383 E29.42721
G1 X111.291 Y72.831 E29.50651
G1 X110.843 Y70.000 E29.58587
G1 X111.291 Y67.168 E29.66526
G1 X112.591 Y64.616 E29.74456
G1 X114.616 Y62.591 E29.82386
G0 F2400 X114.418 Y62.319
G1 F900 X117.066 Y60.969 E29.90616
G1 X120.000 Y60.505 E29.98841
